brandFactory_export/1.Light/Cartera _1Light.svg

<?xml version="1.0" encoding="UTF-8"?>
<svg width="24px" height="24px" viewBox="0 0 24 24" version="1.1" xmlns="http://www.w3.org/2000/svg" xmlns:xlink="http://www.w3.org/1999/xlink">
    <title>1.Light/Cartera _1Light</title>
    <g id="Symbols" stroke="none" stroke-width="1" fill="none" fill-rule="evenodd">
        <g id="1.Light/Cartera-_1Light" fill="#5CB615" fill-rule="nonzero">
            <path d="M22.6352941,16.010084 L22.6352941,12.4672269 C22.6352941,12.1714286 22.4033613,11.9327731 22.1142857,11.9327731 L12.3529412,11.9327731 C11.1865546,11.9327731 10.2352941,12.907563 10.2352941,14.1109244 L10.2352941,14.3731092 C10.2352941,15.5731092 11.1831933,16.5478992 12.3529412,16.5478992 L22.1176471,16.5478992 C22.4033613,16.5445378 22.6352941,16.3058824 22.6352941,16.010084 Z M20.7798319,19.7747899 L20.7764706,17.5596639 L12.3529412,17.5596639 C10.6420168,17.5596639 9.24705882,16.1277311 9.24705882,14.3697479 L9.24705882,14.107563 C9.24705882,12.3462185 10.6386555,10.9142857 12.3529412,10.9142857 L20.7563025,10.9142857 L20.7529412,8.82016807 C20.7831933,8.20168067 20.6386555,7.71428571 20.3260504,7.37478992 C20.0134454,7.03193277 19.5495798,6.85042017 18.9815126,6.84369748 L2.78655462,6.85042017 L2.78655462,6.84033613 C2.11764706,6.84033613 1.49243697,6.58823529 0.991596639,6.14453782 L0.991596639,19.6504202 C0.961344538,20.2588235 1.1092437,20.7428571 1.41848739,21.0823529 C1.73445378,21.4252101 2.21848739,21.6168067 2.78655462,21.6235294 L18.9848739,21.6168067 C19.9731092,21.6235294 20.7798319,20.7932773 20.7798319,19.7747899 Z M0.991596639,3.9394958 L0.991596639,3.97983193 C0.991596639,4.47394958 1.17647059,4.93781513 1.51932773,5.28739496 C1.62352941,5.39495798 1.74453782,5.48571429 1.87226891,5.56302521 L1.87226891,5.09243697 C1.87226891,4.20840336 2.58487395,3.49243697 3.46218487,3.49243697 L17.4621849,2.48739496 L17.4621849,1.06218487 L2.82352941,2.09411765 C2.3092437,2.09411765 1.85882353,2.28907563 1.51932773,2.63529412 C1.17647059,2.98151261 0.991596639,3.44537815 0.991596639,3.9394958 Z M18.9109244,4.02352941 C18.9109244,3.70084034 18.6386555,3.43529412 18.3058824,3.43529412 L17.9563025,3.46218487 L17.9529412,3.46218487 L3.49579832,4.50084034 C3.12941176,4.50084034 2.85714286,4.76638655 2.85714286,5.08907563 L2.85714286,5.82857143 L18.9109244,5.83529412 L18.9109244,4.02352941 Z M22.1176471,10.9176471 C22.9478992,10.9176471 23.6235294,11.6134454 23.6235294,12.4672269 L23.6235294,16.010084 C23.6235294,16.8638655 22.9478992,17.5596639 22.1176471,17.5596639 L21.7647059,17.5596639 L21.7680672,19.7747899 C21.7680672,21.3546218 20.5210084,22.6386555 18.9848739,22.6386555 L2.78319328,22.6453782 C1.9394958,22.6386555 1.20336134,22.3327731 0.699159664,21.7848739 C0.201680672,21.2403361 -0.0403361345,20.4941176 0.00672268908,19.6302521 L0.00672268908,3.9394958 C0.00672268908,3.17647059 0.295798319,2.45714286 0.820168067,1.91596639 C1.34789916,1.37478992 2.04369748,1.07563025 2.78991597,1.07563025 L17.9226891,0.00672268908 C18.0537815,-0.00672268908 18.1915966,0.0470588235 18.292437,0.141176471 C18.3932773,0.238655462 18.4504202,0.373109244 18.4504202,0.51092437 L18.4504202,2.44033613 C19.2739496,2.52436975 19.902521,3.2 19.902521,4.02352941 L19.902521,5.98319328 C20.3529412,6.1210084 20.7495798,6.34957983 21.0521008,6.68235294 C21.5495798,7.22689076 21.7882353,7.97647059 21.7445378,8.84705882 L21.7478992,10.9142857 L22.1176471,10.9142857 L22.1176471,10.9176471 Z M12.5882353,15.2168067 C13.112605,15.2168067 13.5394958,14.7798319 13.5394958,14.2386555 C13.5394958,13.697479 13.112605,13.2605042 12.5882353,13.2605042 C12.0638655,13.2605042 11.6369748,13.7008403 11.6369748,14.2386555 C11.6369748,14.7764706 12.0638655,15.2168067 12.5882353,15.2168067 Z M12.5882353,12.2453782 C13.6571429,12.2453782 14.5243697,13.1394958 14.5243697,14.2386555 C14.5243697,15.3378151 13.6537815,16.2319328 12.5882353,16.2319328 C11.5193277,16.2319328 10.6487395,15.3378151 10.6487395,14.2386555 C10.6487395,13.1394958 11.5193277,12.2453782 12.5882353,12.2453782 Z" id="Cartera-_1Light"></path>
        </g>
    </g>
</svg>

<svg width="24" height="24" viewBox="0 0 24 24" xmlns="http://www.w3.org/2000/svg"><path d="M22.635 16.01v-3.543a.527.527 0 00-.52-.534h-9.762c-1.166 0-2.118.975-2.118 2.178v.262c0 1.2.948 2.175 2.118 2.175h9.765a.531.531 0 00.517-.538zm-1.855 3.765l-.004-2.215h-8.423c-1.711 0-3.106-1.432-3.106-3.19v-.262c0-1.762 1.392-3.194 3.106-3.194h8.403l-.003-2.094c.03-.618-.114-1.106-.427-1.445-.313-.343-.776-.525-1.344-.531L2.787 6.85v-.01a2.693 2.693 0 01-1.795-.695V19.65c-.03.609.117 1.093.426 1.432.316.343.8.535 1.369.542l16.198-.007c.988.007 1.795-.824 1.795-1.842zM.992 3.939v.04c0 .495.184.959.527 1.308.105.108.226.199.353.276v-.47c0-.885.713-1.6 1.59-1.6l14-1.006V1.062L2.824 2.094a1.79 1.79 0 00-1.305.541c-.343.347-.527.81-.527 1.304zm17.919.085a.6.6 0 00-.605-.589l-.35.027h-.003L3.496 4.501c-.367 0-.639.265-.639.588v.74l16.054.006V4.024zm3.207 6.894c.83 0 1.506.695 1.506 1.55v3.542c0 .854-.676 1.55-1.506 1.55h-.353l.003 2.215c0 1.58-1.247 2.864-2.783 2.864l-16.202.006c-.844-.006-1.58-.312-2.084-.86-.497-.545-.74-1.29-.692-2.155V3.94c0-.764.289-1.483.813-2.024a2.73 2.73 0 011.97-.84L17.923.006a.484.484 0 01.37.135c.1.098.157.232.157.37v1.93c.824.083 1.453.759 1.453 1.583v1.96c.45.137.847.366 1.15.698.497.545.735 1.294.692 2.165l.003 2.067h.37v.004zm-9.53 4.299a.965.965 0 00.951-.978.965.965 0 00-.95-.978c-.525 0-.952.44-.952.978 0 .537.427.978.951.978zm0-2.972c1.07 0 1.936.894 1.936 1.994 0 1.099-.87 1.993-1.936 1.993-1.069 0-1.94-.894-1.94-1.993 0-1.1.871-1.994 1.94-1.994z" fill="#5CB615" fill-rule="nonzero"/></svg>
